X: 25
T: No_119_Pawakone's_War_Song_(a).krn
N: Derived from No_119_Pawakone's_War_Song_(a).krn
%%abc-version 2.0
%%abcx-abcm2ps-target-version 5.9.1 (29 Sep 2008)
%%abc-creator hum2abc beta
%%abcx-conversion-date 2019/03/15 08:35:44
%%humdrum-veritas 2295960946
%%humdrum-veritas-data 3609936266
%%linebreak <none>
%%barnumbers 0
L: 1/8
M: 2/4
K: A clef=bass
[K:clef=bass][M:2/4]z2E3/E/ | 
E4 | 
D3/E/ E/D3/ | 
D/B,3/ A,3/A,/ ||  
[M:3/4]A,4A,/A,3/ ||  
[M:2/4]A,4 | 
A, z D3/D/ ||  
[M:3/4](D4B,3/)E/ ||  
[M:2/4]E/D3/ D/B,3/ | 
A,3/A,/A,2 ||  
[M:3/4]B,/B,3/ B,/A,3/ (3A,F,F, | 
E,4D, z | 
E,/D,3/ D,/B,,3/ A,,3/A,,/ ||  
[M:2/4]A,,4 | 
A,, z D,3/D,/ ||  
[M:3/4]D,4B,, z ||  
[M:2/4]E,/D,3/ D,/B,,3/ | 
A,,3/A,,/A,,2 ||  
[M:3/4]B,,/B,,3/ B,,/A,,3/ A,,3/A,,/ | 
A,,4A,, z |]  



